packages/symbols/svgs/outline/c-pulse-outline.svg

<svg width="24" height="24" viewBox="0 0 24 24" fill="none" xmlns="http://www.w3.org/2000/svg">
<g clip-path="url(#clip0_1279_4156)">
<path fill-rule="evenodd" clip-rule="evenodd" d="M10.0799 6.00321C10.4586 6.03355 10.7874 6.27587 10.9285 6.62862L14.1797 14.7568L16.1425 11.4855C16.3232 11.1843 16.6487 11 17 11H23C23.5523 11 24 11.4477 24 12C24 12.5523 23.5523 13 23 13H17.5662L14.8575 17.5145C14.662 17.8403 14.2988 18.0272 13.9201 17.9968C13.5414 17.9665 13.2126 17.7241 13.0715 17.3714L9.82026 9.24323L7.85749 12.5145C7.67677 12.8157 7.35126 13 7 13H1C0.447715 13 0 12.5523 0 12C0 11.4477 0.447715 11 1 11H6.43381L9.14251 6.48552C9.33797 6.15974 9.70117 5.97286 10.0799 6.00321Z" fill="black"/>
<path fill-rule="evenodd" clip-rule="evenodd" d="M12 2C6.47715 2 2 6.47715 2 12C2 17.5228 6.47715 22 12 22C17.5228 22 22 17.5228 22 12C22 6.47715 17.5228 2 12 2ZM0 12C0 5.37258 5.37258 0 12 0C18.6274 0 24 5.37258 24 12C24 18.6274 18.6274 24 12 24C5.37258 24 0 18.6274 0 12Z" fill="black"/>
</g>
<defs>
<clipPath id="clip0_1279_4156">
<rect width="24" height="24" fill="white"/>
</clipPath>
</defs>
</svg>

<svg width="24" height="24" viewBox="0 0 24 24" xmlns="http://www.w3.org/2000/svg"><g clip-path="url(#a)" fill-rule="evenodd" clip-rule="evenodd"><path d="M10.08 6.003a1 1 0 0 1 .848.626l3.252 8.128 1.962-3.271A1 1 0 0 1 17 11h6a1 1 0 1 1 0 2h-5.434l-2.708 4.515a1 1 0 0 1-1.787-.144l-3.25-8.128-1.964 3.271A1 1 0 0 1 7 13H1a1 1 0 1 1 0-2h5.434l2.709-4.514a1 1 0 0 1 .937-.483Z"/><path d="M12 2C6.477 2 2 6.477 2 12s4.477 10 10 10 10-4.477 10-10S17.523 2 12 2ZM0 12C0 5.373 5.373 0 12 0s12 5.373 12 12-5.373 12-12 12S0 18.627 0 12Z"/></g><defs><clipPath id="a"><path fill="#fff" d="M0 0h24v24H0z"/></clipPath></defs></svg>
